public/images/pizza.svg

<svg xmlns:xlink="http://www.w3.org/1999/xlink" xmlns="http://www.w3.org/2000/svg" width="18" height="18" viewBox="0 0 18 18" fill="none">
<g clip-path="url(#clip0)">
<path d="M11.8959 12.4818C12.0415 12.4818 12.1596 12.3637 12.1596 12.2181C12.1596 12.0725 12.0415 11.9544 11.8959 11.9544C11.7503 11.9544 11.6322 12.0725 11.6322 12.2181C11.6322 12.3637 11.7503 12.4818 11.8959 12.4818ZM10.1381 5.55216C10.2837 5.55216 10.4018 5.4341 10.4018 5.28848C10.4018 5.14287 10.2837 5.02481 10.1381 5.02481C9.99247 5.02481 9.87442 5.14287 9.87442 5.28848C9.87442 5.4341 9.99247 5.55216 10.1381 5.55216ZM10.1381 8.18888C10.2837 8.18888 10.4018 8.07082 10.4018 7.9252C10.4018 7.77959 10.2837 7.66153 10.1381 7.66153C9.99247 7.66153 9.87442 7.77959 9.87442 7.9252C9.87442 8.07082 9.99247 8.18888 10.1381 8.18888ZM8.81973 6.87052C8.96535 6.87052 9.0834 6.75246 9.0834 6.60684C9.0834 6.46123 8.96535 6.34317 8.81973 6.34317C8.67411 6.34317 8.55606 6.46123 8.55606 6.60684C8.55606 6.75246 8.67411 6.87052 8.81973 6.87052ZM11.4564 6.87052C11.6021 6.87052 11.7201 6.75246 11.7201 6.60684C11.7201 6.46123 11.6021 6.34317 11.4564 6.34317C11.3108 6.34317 11.1928 6.46123 11.1928 6.60684C11.1928 6.75246 11.3108 6.87052 11.4564 6.87052ZM15.3558 2.63602C13.6559 0.936176 11.3958 0 8.99178 0C6.7099 0 4.53355 0.855387 2.86366 2.40859C1.20257 3.95364 0.192139 6.04582 0.018643 8.29976C0.00746335 8.44499 0.116061 8.57173 0.261256 8.58291C0.406557 8.59426 0.53319 8.48545 0.544405 8.34029C0.707741 6.21875 1.65896 4.24934 3.22282 2.79475C4.7948 1.33256 6.8436 0.527344 8.99178 0.527344C11.2549 0.527344 13.3826 1.40864 14.9829 3.00892C16.5831 4.6092 17.4644 6.73685 17.4644 9C17.4644 11.2631 16.5831 13.3908 14.9829 14.9911C13.3826 16.5913 11.2549 17.4727 8.99178 17.4727C6.82416 17.4727 4.76171 16.6546 3.18443 15.1694C1.61393 13.6905 0.673569 11.6942 0.536565 9.54833C0.527284 9.403 0.401811 9.29285 0.256651 9.30199C0.111315 9.31127 0.00102976 9.43657 0.010311 9.58191C0.155858 11.8617 1.15472 13.9823 2.82288 15.5533C4.49843 17.1311 6.68923 18 8.99178 18C11.3958 18 13.6559 17.0638 15.3558 15.364C17.0556 13.6641 17.9918 11.404 17.9918 9C17.9918 6.59602 17.0556 4.33589 15.3558 2.63602ZM2.14321 10.4297C2.32925 10.6867 2.50503 10.9296 2.58269 11.1666C2.66528 11.419 2.66858 11.7284 2.67217 12.0561C2.67755 12.5557 2.68314 13.0723 2.97827 13.4745C3.27566 13.8798 3.76816 14.0411 4.24442 14.1971C4.55426 14.2986 4.8469 14.3944 5.05903 14.5476C5.26663 14.6976 5.44726 14.9425 5.63848 15.202C5.93783 15.608 6.24731 16.0279 6.73321 16.1844C7.14861 16.3182 7.56725 16.212 7.97932 16.0854C8.16639 16.4888 8.57504 16.7695 9.04825 16.7695C9.52145 16.7695 9.93011 16.4888 10.1172 16.0854C10.3957 16.171 10.6782 16.2454 10.9569 16.2454C11.0936 16.2454 11.2293 16.2275 11.3632 16.1844C11.8491 16.0279 12.1587 15.608 12.458 15.202C12.6492 14.9425 12.8299 14.6975 13.0374 14.5477C13.2496 14.3945 13.5422 14.2986 13.8521 14.1971C14.3284 14.0411 14.8209 13.8799 15.1183 13.4745C15.4134 13.0724 15.4189 12.5557 15.4244 12.0562C15.4279 11.7285 15.4312 11.4191 15.5138 11.1667C15.5913 10.9301 15.7666 10.6877 15.9523 10.4311C16.0058 10.3572 16.0601 10.281 16.1135 10.2041C16.6065 10.0634 16.9686 9.60915 16.9686 9.07165C16.9686 8.53414 16.6065 8.07989 16.1135 7.93923C16.0601 7.86224 16.0058 7.78605 15.9523 7.71216C15.7667 7.45559 15.5913 7.21325 15.5138 6.97665C15.4312 6.72423 15.4279 6.41479 15.4244 6.08713C15.4189 5.58756 15.4134 5.07097 15.1183 4.66882C14.8209 4.26347 14.3284 4.10217 13.8521 3.94615C13.5423 3.84465 13.2496 3.74885 13.0375 3.59571C12.8299 3.44573 12.6492 3.20077 12.458 2.94135C12.1587 2.53526 11.8492 2.11535 11.3632 1.95891C10.9726 1.83312 10.5666 1.92241 10.1676 2.04261C10.0134 1.5717 9.57 1.23047 9.04825 1.23047C8.52649 1.23047 8.08314 1.57166 7.92891 2.04254C7.52992 1.92231 7.12393 1.83301 6.73324 1.95887C6.24735 2.11532 5.93783 2.53526 5.63848 2.94131C5.44726 3.20073 5.26663 3.44573 5.05907 3.59564C4.8469 3.74878 4.55426 3.84462 4.24442 3.94611C3.76816 4.10214 3.27566 4.2634 2.97827 4.66875C2.68314 5.0709 2.67755 5.58756 2.67217 6.08716C2.66858 6.41478 2.66528 6.72423 2.58276 6.97648C2.50503 7.21368 2.32925 7.4565 2.14321 7.7136C2.09698 7.77744 2.05011 7.84308 2.00371 7.90928C1.44388 8.00002 1.01501 8.48658 1.01501 9.07161C1.01501 9.65665 1.44388 10.1432 2.00371 10.2339C2.05011 10.3002 2.09701 10.3658 2.14321 10.4297ZM9.04825 16.2422C8.68962 16.2422 8.39785 15.9504 8.39785 15.5918C8.39785 15.2332 8.68962 14.9414 9.04825 14.9414C9.40687 14.9414 9.69864 15.2332 9.69864 15.5918C9.69864 15.9504 9.40687 16.2422 9.04825 16.2422ZM15.7908 8.42122C16.1495 8.42122 16.4412 8.71298 16.4412 9.07161C16.4412 9.43024 16.1495 9.722 15.7908 9.722C15.4322 9.722 15.1404 9.43024 15.1404 9.07161C15.1404 8.71298 15.4322 8.42122 15.7908 8.42122ZM9.04825 1.75781C9.40687 1.75781 9.69864 2.04957 9.69864 2.4082C9.69864 2.76683 9.40687 3.05859 9.04825 3.05859C8.68962 3.05859 8.39785 2.76683 8.39785 2.4082C8.39785 2.04957 8.68958 1.75781 9.04825 1.75781ZM3.08395 7.14052C3.19167 6.81103 3.19564 6.4459 3.19948 6.09282C3.20419 5.65741 3.20862 5.24619 3.40345 4.98069C3.60068 4.71185 3.99309 4.58332 4.40857 4.44723C4.74312 4.33768 5.08898 4.22437 5.36774 4.02318C5.64224 3.82496 5.85613 3.53479 6.06295 3.2542C6.32416 2.89983 6.57085 2.56511 6.89485 2.4608C7.17122 2.37185 7.51561 2.46509 7.88317 2.58019C7.9667 3.14831 8.45727 3.58594 9.04825 3.58594C9.63922 3.58594 10.1298 3.14835 10.2133 2.58019C10.5809 2.46509 10.9253 2.37185 11.2016 2.4608C11.5256 2.56514 11.7723 2.89983 12.0335 3.2542C12.2404 3.53479 12.4543 3.82497 12.7288 4.02325C13.0075 4.22441 13.3534 4.33768 13.6879 4.44727C14.1034 4.58332 14.4958 4.71185 14.693 4.98076C14.8878 5.24619 14.8923 5.65741 14.897 6.09282C14.9008 6.4459 14.9048 6.81103 15.0126 7.14066C15.1057 7.42496 15.2843 7.68691 15.4662 7.93976C14.9742 8.08109 14.6131 8.53485 14.6131 9.07165C14.6131 9.60845 14.9742 10.0622 15.4662 10.2035C15.2843 10.4564 15.1057 10.7183 15.0126 11.0027C14.9048 11.3323 14.9008 11.6974 14.897 12.0505C14.8923 12.4859 14.8878 12.8971 14.693 13.1626C14.4958 13.4314 14.1034 13.56 13.6879 13.696C13.3534 13.8056 13.0075 13.9189 12.7287 14.1201C12.4542 14.3183 12.2403 14.6085 12.0335 14.8891C11.7723 15.2434 11.5256 15.5782 11.2016 15.6825C10.9283 15.7704 10.5884 15.6801 10.2253 15.5668C10.2119 14.929 9.68925 14.4141 9.04825 14.4141C8.40724 14.4141 7.88454 14.929 7.87114 15.5668C7.50812 15.6801 7.16812 15.7705 6.89489 15.6825C6.57089 15.5781 6.3242 15.2434 6.06299 14.8891C5.85613 14.6085 5.64224 14.3183 5.36774 14.1201C5.08898 13.9189 4.74312 13.8056 4.4086 13.696C3.99316 13.5599 3.60075 13.4314 3.40349 13.1625C3.20865 12.897 3.20422 12.4858 3.19951 12.0504C3.19568 11.6973 3.19171 11.3322 3.08392 11.0025C2.98706 10.707 2.79792 10.4355 2.6086 10.1733C3.05337 10.0048 3.37051 9.57466 3.37051 9.07161C3.37051 8.56856 3.05337 8.13839 2.6086 7.96992C2.79789 7.70773 2.98703 7.43625 3.08395 7.14052ZM1.54239 9.07161C1.54239 8.71298 1.83415 8.42122 2.19278 8.42122C2.5514 8.42122 2.84317 8.71298 2.84317 9.07161C2.84317 9.43024 2.5514 9.722 2.19278 9.722C1.83415 9.722 1.54239 9.43024 1.54239 9.07161ZM10.1381 6.87052C10.2837 6.87052 10.4018 6.75246 10.4018 6.60684C10.4018 6.46123 10.2837 6.34317 10.1381 6.34317C9.99247 6.34317 9.87442 6.46123 9.87442 6.60684C9.87442 6.75246 9.99247 6.87052 10.1381 6.87052ZM10.5775 11.1634C10.7232 11.1634 10.8412 11.0454 10.8412 10.8997C10.8412 10.7541 10.7232 10.6361 10.5775 10.6361C10.4319 10.6361 10.3139 10.7541 10.3139 10.8997C10.3139 11.0454 10.4319 11.1634 10.5775 11.1634ZM6.44668 11.5364C7.84987 11.5364 9.00307 10.4489 9.10966 9.07256C9.42642 9.20517 9.7738 9.27868 10.1381 9.27868C10.7263 9.27868 11.2704 9.08719 11.7123 8.76386C11.7724 8.75869 11.8335 8.75517 11.8959 8.75517C13.0784 8.75517 14.0404 9.71719 14.0404 10.8997C14.0404 12.0822 13.0784 13.0442 11.8959 13.0442C10.7134 13.0442 9.75137 12.0822 9.75137 10.8997C9.75137 10.65 9.7938 10.4055 9.87755 10.1731C9.92687 10.0361 9.85578 9.88499 9.71878 9.83563C9.58178 9.78638 9.43071 9.85736 9.38135 9.99439C9.27694 10.2844 9.22399 10.589 9.22399 10.8997C9.22399 12.373 10.4226 13.5716 11.8959 13.5716C13.3691 13.5716 14.5677 12.373 14.5677 10.8997C14.5677 9.54373 13.5521 8.42122 12.2418 8.25096C12.5972 7.7972 12.8099 7.22654 12.8099 6.60677C12.8099 5.13352 11.6113 3.9349 10.1381 3.9349C8.73507 3.9349 7.58198 5.02211 7.47511 6.39816C7.15132 6.26302 6.8025 6.19263 6.44665 6.19263C4.97339 6.19263 3.77477 7.39125 3.77477 8.86451C3.77477 10.3378 4.97339 11.5364 6.44668 11.5364ZM10.1381 4.46231C11.3206 4.46231 12.2826 5.42433 12.2826 6.60684C12.2826 7.78936 11.3206 8.75138 10.1381 8.75138C8.95557 8.75138 7.99356 7.78936 7.99356 6.60684C7.99356 5.42433 8.95557 4.46231 10.1381 4.46231ZM6.44668 6.72001C6.816 6.72001 7.17568 6.81441 7.49455 6.99346C7.60167 7.7291 8.00973 8.36803 8.58932 8.78193C8.63446 9.99035 7.66042 11.0091 6.44668 11.0091C5.26417 11.0091 4.30215 10.0471 4.30215 8.86454C4.30215 7.68203 5.26417 6.72001 6.44668 6.72001ZM13.4779 10.8997C13.4779 10.7541 13.3599 10.6361 13.2143 10.6361C13.0686 10.6361 12.9506 10.7541 12.9506 10.8997C12.9506 11.0454 13.0686 11.1634 13.2143 11.1634C13.3599 11.1634 13.4779 11.0454 13.4779 10.8997ZM11.8959 9.84505C12.0415 9.84505 12.1596 9.727 12.1596 9.58138C12.1596 9.43576 12.0415 9.31771 11.8959 9.31771C11.7503 9.31771 11.6322 9.43576 11.6322 9.58138C11.6322 9.727 11.7503 9.84505 11.8959 9.84505ZM11.8959 11.1634C12.0415 11.1634 12.1596 11.0454 12.1596 10.8997C12.1596 10.7541 12.0415 10.6361 11.8959 10.6361C11.7503 10.6361 11.6322 10.7541 11.6322 10.8997C11.6322 11.0454 11.7503 11.1634 11.8959 11.1634ZM7.76504 9.12818C7.91066 9.12818 8.02871 9.01013 8.02871 8.86451C8.02871 8.71889 7.91066 8.60084 7.76504 8.60084C7.61943 8.60084 7.50137 8.71889 7.50137 8.86451C7.50137 9.01013 7.61943 9.12818 7.76504 9.12818ZM6.44668 9.12818C6.5923 9.12818 6.71035 9.01013 6.71035 8.86451C6.71035 8.71889 6.5923 8.60084 6.44668 8.60084C6.30107 8.60084 6.18301 8.71889 6.18301 8.86451C6.18301 9.01013 6.30107 9.12818 6.44668 9.12818ZM6.44668 7.80982C6.5923 7.80982 6.71035 7.69177 6.71035 7.54615C6.71035 7.40053 6.5923 7.28248 6.44668 7.28248C6.30107 7.28248 6.18301 7.40053 6.18301 7.54615C6.18301 7.69177 6.30107 7.80982 6.44668 7.80982ZM5.12832 9.12818C5.27394 9.12818 5.39199 9.01013 5.39199 8.86451C5.39199 8.71889 5.27394 8.60084 5.12832 8.60084C4.98271 8.60084 4.86465 8.71889 4.86465 8.86451C4.86465 9.01013 4.98271 9.12818 5.12832 9.12818ZM6.44668 10.4465C6.5923 10.4465 6.71035 10.3285 6.71035 10.1829C6.71035 10.0372 6.5923 9.9192 6.44668 9.9192C6.30107 9.9192 6.18301 10.0372 6.18301 10.1829C6.18301 10.3285 6.30107 10.4465 6.44668 10.4465Z" fill="black"/>
</g>
<defs>
<clipPath id="clip0">
<rect width="18" height="18" fill="white"/>
</clipPath>
</defs>
</svg>

<svg xmlns="http://www.w3.org/2000/svg" width="18" height="18" fill="none"><g clip-path="url(#a)"><path fill="#000" d="M11.896 12.482a.264.264 0 1 0 0-.528.264.264 0 0 0 0 .528m-1.758-6.93a.264.264 0 1 0 0-.527.264.264 0 0 0 0 .527m0 2.637a.264.264 0 1 0 0-.528.264.264 0 0 0 0 .528M8.82 6.87a.264.264 0 1 0 0-.528.264.264 0 0 0 0 .528m2.636 0a.264.264 0 1 0 0-.528.264.264 0 0 0 0 .528m3.9-4.235A8.94 8.94 0 0 0 8.992 0a8.97 8.97 0 0 0-6.128 2.409 8.97 8.97 0 0 0-2.845 5.89.264.264 0 1 0 .525.041 8.44 8.44 0 0 1 2.679-5.545A8.44 8.44 0 0 1 8.992.527c2.263 0 4.39.882 5.99 2.482A8.42 8.42 0 0 1 17.465 9c0 2.263-.88 4.39-2.481 5.991a8.42 8.42 0 0 1-5.991 2.482 8.44 8.44 0 0 1-5.808-2.304A8.44 8.44 0 0 1 .537 9.55a.264.264 0 0 0-.527.033 8.96 8.96 0 0 0 2.813 5.971A8.97 8.97 0 0 0 8.992 18a8.94 8.94 0 0 0 6.364-2.636A8.94 8.94 0 0 0 17.992 9a8.94 8.94 0 0 0-2.636-6.364M2.143 10.43c.186.257.362.5.44.737.082.252.086.561.09.89.005.499.01 1.015.305 1.418.298.405.79.566 1.266.722.31.102.603.197.815.35.208.15.388.396.58.655.299.406.608.826 1.094.982.416.134.834.028 1.246-.099a1.18 1.18 0 0 0 2.138 0c.279.086.561.16.84.16q.205.001.406-.06c.486-.157.796-.577 1.095-.983.191-.26.372-.505.58-.654.212-.153.504-.25.814-.35.476-.157.969-.318 1.266-.723.295-.403.3-.92.306-1.419.004-.327.007-.637.09-.89.077-.236.253-.478.438-.735q.081-.111.161-.227a1.18 1.18 0 0 0 .856-1.132 1.18 1.18 0 0 0-.856-1.133l-.16-.227c-.186-.256-.362-.499-.44-.735-.082-.253-.085-.562-.089-.89-.005-.5-.01-1.016-.306-1.418-.297-.406-.79-.567-1.266-.723-.31-.101-.602-.197-.815-.35-.207-.15-.388-.395-.579-.655-.3-.406-.609-.826-1.095-.982-.39-.126-.796-.037-1.195.084a1.18 1.18 0 0 0-1.12-.813 1.18 1.18 0 0 0-1.12.813c-.398-.12-.804-.21-1.195-.084-.486.156-.795.576-1.095.982-.19.26-.371.505-.579.655-.212.153-.505.249-.815.35-.476.156-.968.317-1.266.723-.295.402-.3.919-.306 1.418-.003.328-.007.637-.09.89-.077.237-.253.48-.439.737l-.14.195a1.18 1.18 0 0 0-.988 1.163c0 .585.429 1.071.989 1.162q.07.1.14.196m6.905 5.812a.651.651 0 1 1 .002-1.302.651.651 0 0 1-.002 1.302m6.743-7.82a.651.651 0 1 1-.002 1.301.651.651 0 0 1 .002-1.302M9.048 1.757a.651.651 0 1 1-.001 1.302.651.651 0 0 1 .001-1.302M3.084 7.14c.108-.33.112-.695.115-1.048.005-.436.01-.847.204-1.112.198-.27.59-.398 1.006-.534.334-.11.68-.223.959-.424.274-.198.488-.488.695-.769.261-.354.508-.689.832-.793.276-.09.62.004.988.12a1.18 1.18 0 0 0 1.165 1.005 1.18 1.18 0 0 0 1.165-1.006c.368-.115.712-.208.989-.12.324.105.57.44.832.794.206.28.42.571.695.77.279.2.624.314.959.423.415.136.808.265 1.005.534.195.265.2.676.204 1.112.004.353.008.718.116 1.048.093.284.271.546.453.799a1.18 1.18 0 0 0-.853 1.132c0 .536.361.99.853 1.132-.182.252-.36.514-.453.799-.108.33-.112.694-.116 1.047-.005.436-.01.847-.204 1.113-.197.268-.59.397-1.005.533-.335.11-.68.223-.96.424-.274.198-.488.489-.694.77-.262.353-.508.688-.832.792-.274.088-.614-.002-.977-.115a1.18 1.18 0 0 0-1.177-1.153c-.64 0-1.163.515-1.177 1.153-.363.113-.703.204-.976.115-.324-.104-.57-.439-.832-.793-.207-.28-.42-.57-.695-.769-.279-.201-.625-.314-.96-.424-.415-.136-.807-.265-1.005-.534-.194-.265-.199-.676-.203-1.112-.004-.353-.008-.718-.116-1.048-.097-.295-.286-.567-.475-.829a1.18 1.18 0 0 0 .762-1.101 1.18 1.18 0 0 0-.762-1.102c.189-.262.378-.534.475-.83M1.542 9.07a.651.651 0 1 1 1.303.002.651.651 0 0 1-1.303-.001m8.596-2.2a.264.264 0 1 0 0-.528.264.264 0 0 0 0 .528m.44 4.292a.264.264 0 1 0 0-.527.264.264 0 0 0 0 .527m-4.131.373A2.675 2.675 0 0 0 9.11 9.073a2.657 2.657 0 0 0 2.603-.309q.09-.008.183-.009c1.182 0 2.144.962 2.144 2.145a2.147 2.147 0 0 1-2.144 2.144 2.147 2.147 0 0 1-2.018-2.87.264.264 0 0 0-.497-.18 2.675 2.675 0 0 0 2.515 3.577 2.675 2.675 0 0 0 2.672-2.671 2.675 2.675 0 0 0-2.326-2.649 2.66 2.66 0 0 0 .568-1.644 2.675 2.675 0 0 0-2.672-2.672 2.675 2.675 0 0 0-2.663 2.463 2.675 2.675 0 0 0-3.7 2.466 2.675 2.675 0 0 0 2.672 2.672m3.691-7.074c1.183 0 2.145.962 2.145 2.145a2.147 2.147 0 0 1-2.145 2.144 2.147 2.147 0 0 1-2.144-2.144c0-1.183.962-2.145 2.144-2.145M6.447 6.72c.369 0 .729.094 1.048.273a2.67 2.67 0 0 0 1.094 1.789 2.15 2.15 0 0 1-2.142 2.227 2.147 2.147 0 0 1-2.145-2.144c0-1.183.962-2.145 2.145-2.145m7.03 4.18a.264.264 0 1 0-.526 0 .264.264 0 0 0 .527 0m-1.581-1.055a.264.264 0 1 0 0-.527.264.264 0 0 0 0 .527m0 1.318a.264.264 0 1 0 0-.527.264.264 0 0 0 0 .527M7.765 9.128a.264.264 0 1 0 0-.527.264.264 0 0 0 0 .527m-1.318 0a.264.264 0 1 0 0-.527.264.264 0 0 0 0 .527m0-1.318a.264.264 0 1 0 0-.528.264.264 0 0 0 0 .528M5.128 9.128a.264.264 0 1 0 0-.527.264.264 0 0 0 0 .527m1.319 1.319a.264.264 0 1 0 0-.528.264.264 0 0 0 0 .527"/></g><defs><clipPath id="a"><path fill="#fff" d="M0 0h18v18H0z"/></clipPath></defs></svg>
